X:1
T:An dro : Mod nevez
Z:Roger Ngaret (94,2000)
R:
C:Yann Dour
S:
A:Bretagne
K:G
T:Thme
M:4/4
L:1/16
K:G
"Em"B4 B2c2 B6A2 | G4 "Am"F4 "Em"E8 | "D"A4 A2G2 F6A2 |1
"Em"B4 "Am"A4 "Em"G4 "Am"F4 :|2 "Em"G4 "Am"F4 "Em"E8 :|
B4 B2c2 B4 G4 | "D"A4 A2B2 A4 F4 | "Em"G4 G2F2 E6F2 |1
G4 "Am"A4 "D"F8 :|2 F4 "G"G4 "Em"E8 |]
T:Variante 1
B4 B2c2 B6A2 | G4 "Am"A4 "Em"E8 | "D"F2F2 A2F2 F2A2 (3F2F2A2 |
"G"B2A2 G2F2 "Em"G4 E4 | "G"B4 B2A2 G6B2 | "Am"A2B2 c2B2 "Em"E8 |
"D"D2F2 A2D2 F2A2 (3F2F2A2 | "G"[G4B4] "D"[F4A4] "Em"[E8G8] :|
T:Variante 2
"Em"E2G2 z2 E2 (G4 [G4)E4] | "C"E2G2 z2 E2 (G4 [G4)E4] |
"D"A4 A2G2 F6A2 | "G"B4 "D"A4 "G"G4 "D"F4 | "Em"E2G2 z2 E2 (G4 [G4)E4] |
"C"E2G2 z2 E2 (G4 [G4)E4] | (3A2"D"F2D2 (3A2F2D2 A4 F4 |
"G"G4 "D"F4 "Em"E8 :|
T:Variante 3
E2 [G4B4] E2 [G4B4] E4 | "C"E2 [G4c4] [G4c4] E2 [G4c4] E4 |
"D"A4 A2G2 F6A2 | "G"B4 "D"A4 "Em"G4 "Am"F4 |
"Em"E2G2 B2E2 G2c2 B2G2 | "C"E2G2 c2E2 G2e2 c4 |
"D"A2B2 A2G2 F6A2 | "G"G4 "D"F4 "Em"E8 :|
T:Variante 4
B4 B2c2 B4 G4 | "D"A4 A2B2 A4 F4 | "Am"e4 e2d2 c4 d2e2 |
"G"d4 d2B2 G8 :: "Em"B4 B2c2 B4 G4 | "D"A4 A2B2 A4 F4 |
"F"c4 c2B2 A4 B2c2 | "Em"B4 B2G2 E8 :|
